src/assets/skills/foundation.svg

<svg height="100pt" viewBox="0 0 100 100" width="100pt" xmlns="http://www.w3.org/2000/svg" xmlns:xlink="http://www.w3.org/1999/xlink"><clipPath id="a"><path d="m0 0h100v100h-100z"/></clipPath><g clip-path="url(#a)"><path d="m-4-2.98 106.225-.131.143 108.401-106.225.13z" fill="#074e68"/><path d="m28.351 20 43.608.309-.31 13.299-28.144.31.309 8.969 27.526.309-.309 13.299-27.526.309-.309 23.196-15.155-.309z" fill="#fdfdfd"/></g></svg>

<?xml version="1.0" encoding="UTF-8" standalone="no"?><!-- Generator: Gravit.io --><svg xmlns="http://www.w3.org/2000/svg" xmlns:xlink="http://www.w3.org/1999/xlink" style="isolation:isolate" viewBox="0 0 100 100" width="100pt" height="100pt"><clipPath id="_clipPath_bJtnr75aTAFYo3vt2ns4aiwc6B9BIk6O"><rect x="0" y="0" width="100" height="100" transform="matrix(1,0,0,1,0,0)" fill="rgb(255,255,255)"/></clipPath><g clip-path="url(#_clipPath_bJtnr75aTAFYo3vt2ns4aiwc6B9BIk6O)"><path d=" M -4 -2.98 L 102.225 -3.111 L 102.368 105.29 L -3.857 105.42 L -4 -2.98 Z " fill="rgb(7,78,104)"/><path d=" M 28.351 20 L 71.959 20.309 L 71.649 33.608 L 43.505 33.918 L 43.814 42.887 L 71.34 43.196 L 71.031 56.495 L 43.505 56.804 L 43.196 80 L 28.041 79.691 L 28.351 20 Z " fill="rgb(253,253,253)"/></g></svg>
